X:1
T:Hark, alleluia - Morley
T:#
%%score 1 { 2 | 3 } 4 { 5 | 6 }
L:1/8
Q:1/4=120
M:4/4
K:C
V:1 treble nm="Soprano" snm="S"
V:2 treble nm="Alto I" snm="A"
V:3 treble 
V:4 treble-8 nm="Tenor" snm="T"
V:5 bass nm="Bass I" snm="B"
V:6 bass 
V:1
"^A reverend memoriall of that honourable true gentleman Henry Noel Esquier." z8 | z8 | B8 | %3
w: ||Hark,|
"^Hark, alleluia" c4 c4 | (B6 A2 | G2 F2) E4 | A4 A4 | ^G8 |"^Thomas Morley\n(1557-1603)" A8 | %9
w: al- le-|lu\- *|* * ia|cheer- ly,|cheer-|ly|
[M:4/4] z4 E4 | E4 A4 | G8- | G4 G4 | A8 | B8 | B4 (c4- | c2 B2 A4-) | (A2 ^G^F G4) | A8 | z8 | %20
w: With|an- gels|now|* he|sing-|eth|he sing\-|||eth.||
 z8 | z8 | B8 | c4 c4 | (B6 A2 | G2 F2) E4 | A8 | G4 G4 | G4 G4 | A4 A4 | A8 | G4 G4 | c4 c4 | %33
w: ||Hark,|al- le-|lu\- *|* * ia|cheer-|ly With|an- gels|now he|sing-|eth That|here loved|
 B2 A2 (A4- | A2 ^G^F G4) | A8 | z4 G4- | G4 G4 | A8 | B8 | z8 | z8 | z8 | z8 | z4 G4 | B2 c2 d4- | %46
w: mu- sic dear\-||ly,|dear-|* ly,|dear-|ly.|||||Whose|e- cho hea\-|
 (d2 cB A2) B2 | c4 A4 | A8- | A8 | ^G4 B4 | c2 c2 c4- | c2 B2 A4 | G4 (A4- | A2 G2 G4- | G4 F4) | %56
w: * * * * ven|ring- eth,|ring\-||eth, Where|thou- sand thou-|* sand che-|rubs ho\-|||
 E8 | z4 G4 | G4 E4 | A8 | B4 (e4- | e2 d2 c4) | B8 | z8 | z4 c4 | B2 B2 e4- | e2 d2 (c4- | %67
w: ver,|where|thou- sand|che-|rubs ho\-||ver||A-|bout th'e- ter\-|* nal Mov\-|
 c2 B2 A4- | A2 ^G^F G4 | A8- |[Q:1/4=117] A8)[Q:1/4=112] |[Q:1/4=107] B8-[Q:1/4=103][Q:1/4=101] | %72
w: ||||er.|
[Q:1/4=100] B8 |] %73
w: |
V:2
 z8 | z8 | z8 | z8 | z8 | E8 | F4 F4 | (E6 D2 | C2 B,2 A,4) |[M:4/4] E8 | E8 | E8 | z8 | z8 | E8 | %15
w: |||||Hark,|al- le-|lu\- *||ia|cheer-|ly|||With|
 G4 C4 | C6 D2 | E4 B,4 | E8 | F4 F4 | E6 D2 | (C2 B,2 A,4- | A,2 ^G,^F, G,4) | A,4 A4 | G4 E4 | %25
w: an- gels|now he|sing- eth.|Hark,|al- le-|lu- ia|cheer\- * *||ly With|an- gels|
 E4 E4 | (F6 E2) | D4 D4- | D4 E2 D2 | C2 B,2 (A,4- | A,2 G,2 F,4) | G,4 C4 | C2 D2 E2 F2 | %33
w: now he|sing\- *|eth, That|* here loved|mu- sic dear\-||ly, That|here loved mu- sic|
 (G4 E4 | E8) | E8 | z8 | z8 | z4 C4 | B,8 | E4 ^F4 | G8 | G4 G2 (G2- | G2 FE F4) | G8 | G8 | %46
w: dear\- *||ly,|||Whose|e-|cho, whose|e-|cho heav'n ring\-||eth,|whose|
 F4 E2 D2 | E8 | E4 A,4 | C8 | B,8 | E8 | C8- | C4 C4 | B,4 C4 | (A,6 B,2) | C4 (C4- | C4 B,4) | %58
w: E- cho heav'n|ring-|eth, heav'n|ring-|eth,|Where|thou\-|* sand,|thou sand|che\- *|rubs ho\-||
 C4 C4 | C4 A,4 | E6 D2 | (C2 B,2 A,4) | B,8 | z4 A,4 | C4 C4 | D4 G,4 | D4 E4- | E4 E4 | E4 E4 | %69
w: ver, where|thou- sand|che- rubs|ho\- * *|ver|A-|bout th'e-|ter- nal|Mov- er,|* A-|bout th'e-|
 E4 E4 | E8 | E8- | E8 |] %73
w: ter- nal|Mov-|er.||
V:3
 E8 | F4 F4 | E6 D2 | (C2 B,2 A,4) | E8 | z4 C4 | A,2 A,2 D2 C2 | (B,2 A,2 B,4) | A,4 A,2 A,2 | %9
w: Hark,|al- le-|lu- ia|cheer\- * *|ly|With|an- gels now he|sing\- * *|eth, he sing\-|
[M:4/4] (A,2 ^G,^F, G,4) | A,8 | z4 B,4 | D4 E4 | E6 F2 | G8 | E4 E4 | E4 E4 | E6 D2 | %18
w: |eth,|With|An- gels|now he|sing-|eth, Hark;|Al- le-|lu- ia|
 (C2 B,2 A,2 G,2) | F,8 | z8 | z4 A,4 | B,4 B,4 | E4 E4- | (E2 F2) G4 | G8 | z8 | z8 | z8 | E8 | %30
w: cheer\- * * *|ly||With|an- gels|now he|* * sing-|eth||||That|
 F4 F4 | E6 D2 | (C2 B,2 A,4) | E8 | z8 | z4 A,4 | D8 | D4 E4- | E4 E4 | (E6 D2) | ^C4 D4 | E8- | %42
w: here loved|mu- sic|dear\- * *|ly,||That|here|loved mu\-|* sic|dear\- *|ly, Whose|e\-|
 E4 E4 | D4 C4 | D8 | B,8 | A,8 | A,8 | A,4 D4 | E8 | E6 F2 | G6 G2 | F3 F C2 D2 | E8 | D8- | %55
w: * cho|hea- ven|ring-|eth,|whose|e-|cho heav'n|ring-|eth, Where|thou- sand,|thou- sand che- rubs|ho-|ver,|
 D4 D4 | G6 F2 | E4 D4 | E8 | E8 | z8 | E8 | E4 E4 | E4 F4 | G8 | G8- | G4 C4 | C6 D2 | E4 B,4 | %69
w: * where|thou- sand|che- rubs|ho-|ver||A-|bout th'e-|ter- nal|Mov-|er,|* A-|bout th'e-|ter- nal|
 (C6 B,2 | A,2 B,2 C4) | B,8- | B,8 |] %73
w: Mov- *||er.||
V:4
 z8 | z8 | z8 | z8 | z8 | z8 | z8 | z8 | z8 |[M:4/4][K:treble-8] B8 | c4 c4 | (B6 A2 | G2 F2) E4 | %13
w: |||||||||Hark,|al- le-|lu\- *|* * ia|
 A8 | G8- | G4 G4 | A4 c4 | B4 B4 | (A2 B2 c4) | B4 A2 (A2- | A2 ^G^F G4 | A2 B2 c2 d2) | e8 | z8 | %24
w: cheer-|ly|* With|An- gels|now he|sing\- * *|eth, he sing\-|||eth,||
 z8 | B8 | c4 c4 | (B6 A2 | G2) F2 E4 | A8 | z4 c4 | c4 G4 | A8 | (B4 c4) | B8 | A4 A4 | G6 A2 | %37
w: |Hark,|al- le-|lu\- *|* ia cheer-|ly|With|an- gels|now|he *|sing-|eth That|here loved|
 B2 B2 (c4- | c2 B2 A4-) | (A2 ^G^F G4) | A4 A4 | c4 c4 | B4 G4 | z8 | z4 (G4- | G2 FE) D2 E2 | %46
w: mu- sic dear\-|||ly, loved|mu- sic|dear- ly.||Whose|* * * e- cho|
 F8 | E8 | (E4 D4) | A8 | z4 E4- | E4 c2 B2 | A2 G2 (F4 | E6) F2 | (G8 | D4 A4) | G8 | z8 | z4 E4 | %59
w: hea-|ven|ring\- *|eth,|Where|* thou- sand,|thou- sand che\-|* rubs|ho\-||ver,||where|
 E4 E4 | E4 E4 | E8 | E4 B4 | c4 d4 | e4 e4 | d4 c2 c2 | B4 G4 | A4 A4 | B8 | A6 (B2 | c4) A4- | %71
w: thou- sand|che- rubs|ho-|ver A-|bout th'e-|ter- nal|Mov- er, A-|bout th'e-|ter- nal|Mov-|er, th'e\-|* ter\-|
 A4 ^G2 ^F2 | ^G8 |] %73
w: * nal Mo-|ver.|
V:5
 z8 | z8 | z8 | z8 | z8 | z8 | z8 | z8 | z8 |[M:4/4] z8 | z8 | z8 | B,8 | C4 C4 | B,6 A,2 | %15
w: ||||||||||||Hark,|al- le-|lu- ia|
 (G,2 F,2 E,4) | A,8 | z4 B,4 | C4 C4 | D6 C2 | (C2 A,2 B,4) | A,8 | z4 E,4- | E,4 E,4 | %24
w: cheer\- * *|ly|With|an- gels|now he|sing\- * *|eth,|now|* he|
 (G,6 F,2) | E,8 | z8 | z4 G,4 | B,4 C4 | C8 | C4 (C,4- | C,2 D,2) E,4 | E,8 | E,8 | z4 B,4 | %35
w: sing\- *|eth,||That|here loved|mu-|sic dear\-|* * ly,|dear-|ly,|That|
 C4 C4 | B,6 A,2 | (G,2 F,2 E,4) | A,8 | z8 | z8 | G,4 G,4- | G,2 A,2 B,4- | B,4 (C4- | %44
w: here loved|mu- sic|dear\- * *|ly.|||Whose e\-|* cho heav'n|* ring\-|
 C2 B,A, B,2 C2) | D4 D4 | D4 D4 | C6 (B,2 | A,2 G,2 F,4) | E,8 | z4 G,4 | G,4 G,4 | A,6 B,2 | %53
w: |eth, whose|e- cho|heav'n ring\-||eth,|where|thou- sand,|thou- sand|
 (C4 C,4) | D,8- | D,4 F,4 | C,8 | z8 | G,8 | A,4 C4 | B,8 | A,4 (A,4- | A,2 ^G,^F, G,4) | A,8 | %64
w: che\- *|rubs|* ho-|ver,||where|thou- sand|che-|rubs ho\-||ver|
 E,8 | G,8- | G,4 E,4 | E,4 E,4 | E,8- | E,8 | E,8 | E,8- | E,8 |] %73
w: A-|bout|* th'e-|ter- nal|Mov\-|||er.||
V:6
 z8 | z8 | z8 | z8 | z8 | z8 | z8 | E,8 | F,4 F,4 |[M:4/4] E,6 D,2 | (C,2 B,,2 A,,4) | E,8 | z8 | %13
w: |||||||Hark,|al- le-|lu- ia|cheer\- * *|ly||
 z4 A,,4 | E,4 E,4 | E,2 D,2 (C,2 B,,2) | A,,8 | E,8 | A,,8 | D,8 | E,8 | F,4 F,4 | E,6 D,2 | %23
w: With|an- gels|now he sing\- *|eth,|he|sing-|eth,|Hark,|al- le-|lu- ia|
 (C,2 B,,2 A,,4) | E,8 | z4 G,4 | F,4 F,4 | G,4 G,,4 | G,,4 C,2 B,,2 | A,,6 G,,2 | F,,4 F,,4 | %31
w: cheer\- * *|ly|With|an- gels|now he|sing- eth, with|an- gels|now he|
 (C,6 B,,2) | A,,8 | z4 A,,4 | E,4 E,4 | C,4 A,,4 | B,,4 G,,4- | G,,4 C,4 | A,,8 | E,8 | A,,4 D,4 | %41
w: sing\- *|eth|That|here loved|mu- sic|dear- ly,|* dear-|ly,|dear-|ly, Whose|
 (C,6 D,2 | E,2 F,2) G,4- | G,4 A,4 | G,8 | G,,8 | D,8 | (A,,6 B,,2) | C,4 D,4 | A,,8 | E,8 | C,8 | %52
w: e\- *|* * cho|* heav'n|ring-|eth,|whose|e\- *|cho heav'n|ring-|eth,|Where|
 F,4 F,4 | C,4 A,,4 | B,,6 C,2 | (D,8- | E,6 F,2 | G,8) | C,4 C,4 | A,,8 | ^G,,8 | A,,8 | E,8 | %63
w: thou- sand|thou- sand|che- rubs|ho\-|||ver, where|thou-|sand|che-|rubs|
 (A,,4 D,4) | C,8 | z4 C,4 | G,,4 C,4 | A,,8 | E,8 | A,,8- | A,,8 | E,,8- | E,,8 |] %73
w: ho\- *|ver|A-|bout th'e-|ter-|nal|Mov\-||er.||

